X:1
T:James Gibb editions
T:Illumina oculos meos - Palestrina
%%score { 1 | 2 } 3
L:1/8
Q:1/4=96
M:4/4
K:F
V:1 treble nm="Soprano I" snm="S"
V:2 treble 
V:3 treble nm="Alto" snm="A"
V:1
"^Illumina oculos meos""^G. P. da Palestrina\n(1524-1594)""^andantino"!mf! F4 G3 G | %1
w: Il- lu- mi-|
"^," A2 d3 c B2 | (c2 BA Bcde | f2) F2 z2 !tenuto!G2 |[M:4/4] !tenuto!F2 !tenuto!D2 G2 B>B | %5
w: na o- cu- los|me\- * * * * * *|* os, ne|un- quam ob- dor- mi-|
"^," A2 A2 (BcdB | c2) F2 z4 |!mf! F4 G3 G |"^," A2 d3 c B2 | c2 BA Bcde | f2 F2 z2 !tenuto!G2 | %11
w: am in mor\- * * *|* te:|Il- lu- mi-|na o- cu- los|me\- * * * * * *|* os, ne|
 !tenuto!F2 !tenuto!D2 G2 B>B |"^," A2 A2 (BcdB | c2) F2 z4 | %14
w: un- quam ob- dor- mi-|am in mor\- * * *|* te:|
 z8[Q:1/4=94][Q:1/4=92][Q:1/4=91][Q:1/4=90][Q:1/4=89] |[Q:1/4=87] z8[Q:1/4=86] |] %16
w: ||
V:2
 z8 |!mf! F4 G3 G |"^," A2 d3 c B2 | c2 BA Bcde |[M:4/4] f2 F2 z2 !tenuto!G2 | %5
w: |Il- lu- mi-|na o- cu- los|me\- * * * * * *|* os, ne|
 !tenuto!F2 !tenuto!D2 G2 B>B |"^," A2 A2 (BcdB | c2) F2 z4 |!mf! F4 G3 G |"^," A2 d3 c B2 | %10
w: un- quam ob- dor- mi-|am in mor\- * * *|* te:|Il- lu- mi-|na o- cu- los|
 (c2 BA Bcde | f2) F2 z2 !tenuto!G2 | F2 D2 G2 B>B |"^," A2 A2 (BcdB | c2) F2 z4 | z8 |] %16
w: me\- * * * * * *|* os, ne|un- quam ob- dor- mi-|am in mor\- * * *|* te:||
V:3
 z8 | z8 |!mf! F4 G3 G |"^," A2 d3 c B2 |[M:4/4] (c2 BA Bcde | f2) F2 z2 !tenuto!G2 | %6
w: ||Il- lu- mi-|na o- cu- los|me\- * * * * * *|* os, ne|
 !tenuto!F2 !tenuto!D2 !tenuto!G2 B>B |"^," A2 A2 BcdB | c2 F2 z4 |!mf! F4 G3 G |"^," A2 d3 c B2 | %11
w: un- quam ob- dor- mi-|am in mor\- * * *|* te:|Il- lu- mi-|na o- cu- los|
 (c2 BA Bcde | f2 F2 z2 !tenuto!G2 | !tenuto!F2 !tenuto!D2 G2 B>B |"^," A2 A2 BcdB | c2) F2 z4 |] %16
w: me\- * * * * * *|* os, ne|un- quam ob- dor- mi-|am in mor\- * * *|* te:|

